X:1
T:Così, cor mio, vogliate
T:Orlando Lasso
T:Così, cor mio, vogliate
C:Orlando Lasso
Z:Gabriele Fiamma
%%score [ 1 2 3 4 ]
L:1/8
Q:1/4=100
M:2/2
K:C
V:1 alto1 nm="Cantus" snm="C"
V:2 alto nm="Altus" snm="A"
V:3 tenor nm="Tenor" snm="T"
V:4 bass nm="Basso" snm="B"
V:1
 x8 | z2 z2 z2 x2 |[M:4/2][K:treble] z4 F4 E4 A4 | ^G4 A4 B2 B2 c4 | B4 A6 ^G^F G4 | %5
w: ||Co- sì, cor|mio, vo- glia- te (le|di- ce- * * *|
 A4 z2 ^F2 F4 G4 | A4 A4 F8 | E4 G6 F2 E4 | ^F4 F2 G2 A4 G2 A2 | !courtesy!=B4 A4 c4 B4 | A16 | %11
w: va), Dop- po ch'io|sa- rò mor-|to,a- mar- mi an- co-|ra, Co- me so- lo il la-|sciar- vi è che m’ag-|gre-|
 ^G8 A4 z4 | A2 G2 F4 E4 z2 A2 | ^G4 A4 z2 A2 _B4 | A4 G8 ^F4 | G2 A4 G2 A4 z2 c2- | %16
w: va Qui|sen- za gui- da, e|non già, e non|già per- ch'io|mo- * * ra: Che|
 c2 B2 A2 B4 c4 d2- | d2 _B2 A6 F2 E4 | D4 z2 D2 D4 C4 | D4 E2 G4 F2 E2 E2 | D8 D2 E4 D2 | %21
w: * se in si- cu- ra par-|* te m'ac- ca- de-|va Fi- nir de|la mia vi- ta l’ul- ti-|ma ho- ra, Lie- to e|
 E2 F3 E/D/ E2 F8 | z2 c2 G2 A2 E2 E2 z2 c2 | G2 A2 E2 F2 E8 | E4 F6 E2 D4 | F2 F2 F3 E D4 D4 | %26
w: con- ten- * * * to|e for- tu- na- to, e|for- tu- na- to a pie-|no, Mor- to sa-|rei, poi ch'io vi mo- ro,|
 z2 F2 F3 E D8 | ^C2 D3 C/B,/ C2 D2 E4 D2 | E2 F3 E/D/ E2 F8 | z2 c2 G2 A2 E2 E2 z2 c2 | %30
w: poi ch'io vi mo-|ro in se- * * * no, Lie- to e|con- ten- * * * to|e for- tu- na- to, e|
 G2 A2 E2 F2 E8 | E4 F6 E2 D4 | F2 F2 F3 E D4 D4 | z2 F2 F3 E D8 | ^C4 D6 CB, C4 | %35
w: for- tu- na- to a pie-|no, Mor- to sa-|rei, poi ch'io vi mo- ro,|poi ch'io vi mo-|ro in se- * * *|
 D2 d2 d3 c _B2 A2 G4 | ^F16 |] %37
w: no, poi ch'io vi mo- ro in se-|no.|
V:2
 x8 | z2 z2 z2 x2 |[M:4/2][K:treble-8] z4 d4 ^c4 d4 | e4 ^f4 g6 g2 | g4 e4 e8 | ^c4 z2 d2 d6 e2 | %6
w: ||Co- sì, cor|mio, vo- glia- te|(le di- ce-|va), Dop- po ch'io|
 f6 e2 d8 | ^c4 d4 c2 d4 c2 | d8 c2 d2 e4 | d2 e2 ^f4 g6 g2 | f4 e6 dc d4 | e8 f4 z4 | %12
w: sa- rò mor-|to,a- mar- mi an- co- *|ra, Co- me so-|lo il la- sciar- vi è|che m’ag- gre- * *|va Qui|
 f2 e2 d4 e4 z4 | z2 e2 f4 e4 z2 g2 | f4 d4 d6 d2 | d8 ^c4 z2 e2- | e2 d4 d2 e4 f4 | %17
w: sen- za gui- da,|e non già, e|non già per- ch'io|mo- ra: Che|* se in si- cu- ra|
 d3 e f2 e2 f2 d2 ^c4 | d4 z2 _B2 B4 A4- | A2 B2 c2 e4 d4 c2- | c2 B2 A4 B2 c2 c2 d2 | c8 A4 z4 | %22
w: par- * * te m'ac- ca- de-|va Fi- nir de|* la mia vi- ta l’ul-|* ti- ma ho- ra, Lie- to e con-|ten- to|
 f2 c2 e2 A3 G A2 d2 c2- | cB A2 G2 d2 c3 c B2 B2 | ^c4 d2 d4 e2 f4 | d2 d2 d3 c _B2 B2 A2 A2 | %26
w: e for- tu- na- * * to a pie-|* * * no, e for- tu- na- to a|pie- no, Mor- to sa-|rei, poi ch'io vi mo- ro in se- no,|
 z2 d2 d3 c _B4 B4 | A8 B2 c2 c2 d2 | c8 A4 z4 | f2 c2 e2 A3 G A2 d2 c2- | cB A2 G2 d2 c3 c B2 B2 | %31
w: poi ch'io vi mo- ro in|se- no, Lie- to e con-|ten- to|e for- tu- na- * * to a pie-|* * * no, e for- tu- na- to a|
 ^c4 d2 d4 e2 f4 | d2 d2 d3 c _B2 B2 A2 A2 | z2 d2 d3 c _B4 B4 | A8 A8 | f2 f3 e d2 d4 d4 | d16 |] %37
w: pie- no, Mor- to sa-|rei, poi ch'io vi mo- ro in se- no,|poi ch'io vi mo- ro in|se- no,|poi ch'io vi mo- ro in se-|no.|
V:3
 x8 | z2 z2 z2 x2 |[M:4/2][K:treble-8] d4 A4 A8 | B4 d4 d4 e4 | d4 c4 B8 | A4 z2 A2 A4 B4 | %6
w: ||Co- sì, cor|mio, vo- glia- te|(le di- ce-|va), Dop- po ch'io|
 c4 c4 _B6 A2 | A4 _B4 A8 | A8 A2 B2 c4 | B2 c2 d4 e4 d4- | d4 c4 A8 | B8 z4 c4 | z8 c2 B2 A4 | %13
w: sa- rò mor- to,a-|mar- mi an- co-|ra, Co- me so-|lo il la- sciar- vi è che|* m’ag- gre-|va Qui|sen- za gui-|
 B4 z2 d2 ^c4 d4- | d2 A2 _B4 A4 A2 A2 | D8 E4 A4 | G4 ^F2 G4 A4 _B2- | B2 G2 d2 ^c2 d4 A4 | %18
w: da, e non già,|* e non già per- ch'io|mo- ra: Che|se in si- cu- ra par-|* te m'ac- ca- de- va|
 z2 F2 F4 F6 F2 | F4 G4 A4 A4 | ^F2 G3 F/E/ F2 G4 G4 | G2 A2 G2 G2 z2 d2 A2 _B2 | %22
w: Fi- nir de la|mia vi- ta l’ul-|ti- ma ho- * * * ra, Lie-|to e con- ten- to e for- tu-|
 F4 c4 z2 c2 G2 A2 | E2 c3 B A2 A4 ^G4 | z2 A4 _B2 A8 | _B8 z2 F2 F3 E | D2 _B2 A2 A2 z2 G2 G3 F | %27
w: na- to, e for- tu-|na- to a * * pie- no,|Mor- to sa-|rei, poi ch'io vi|mo- ro in se- no, poi ch'io vi|
 E2 F2 E4 G4 G4 | G2 A2 G2 G2 z2 d2 A2 _B2 | F4 c4 z2 c2 G2 A2 | E2 c3 B A2 A4 ^G4 | z2 A4 _B2 A8 | %32
w: mo- ro in se- no, Lie-|to e con- ten- to e for- tu-|na- to, e for- tu-|na- to a * * pie- no,|Mor- to sa-|
 _B8 z2 F2 F3 E | D2 _B2 A2 A2 z2 G2 G3 F | E4 F4 E8 | D4 F4 G2 A2 _B4 | A16 |] %37
w: rei, poi ch'io vi|mo- ro in se- no, poi ch'io vi|mo- ro in se-|no, vi mo- ro in se-|no.|
V:4
 x8 | z2 z2 z2 x2 |[M:4/2] z4 D,4 A,,4 F,4 | E,4 D,4 G,4 C,4 | G,4 A,4 E,8 | A,,4 z2 D,2 D,4 G,4 | %6
w: ||Co- sì, cor|mio, vo- glia- te|(le di- ce-|va), Dop- po ch'io|
 F,4 A,4 _B,,6 D,2 | A,,4 G,,4 A,,8 | D,4 D,2 E,2 F,4 E,2 F,2 | G,4 D,4 C,4 G,4 | A,6 G,2 F,8 | %11
w: sa- rò mor- to,a-|mar- mi an- co-|ra, Co- me so- lo il la-|sciar- vi è che m’ag-|gre- * *|
 E,8 z4 A,4 | z8 A,2 G,2 F,4 | E,4 z2 D,2 A,4 G,4 | D,8 D,8 | _B,,8 A,,8 | z16 | z16 | %18
w: va Qui|sen- za gui-|da, e non già|per- ch'io|mo- ra:|||
 z2 _B,,2 B,,4 B,,2 B,,2 F,4 | D,4 C,4 A,,4 A,,4 | D,8 G,,2 C,4 B,,2 | C,8 D,4 D,4 | %22
w: Fi- nir de la mia|vi- ta l’ul- ti-|ma ho- ra, Lie- to e|con- ten- to|
 z2 A,2 E,2 F,2 C,2 A,,2 z4 | z2 F,2 C,2 D,2 A,,2 A,,2 E,4 | A,,4 D,6 ^C,2 D,4 | %25
w: e for- tu- na- to,|e for- tu- na- to a pie-|no, Mor- to sa-|
 _B,,8 z2 D,2 D,3 C, | _B,,4 D,4 G,,8 | A,,8 G,,2 C,4 B,,2 | C,8 D,4 D,4 | %29
w: rei, poi ch'io vi|mo- ro in se-|* no, Lie- to e|con- ten- to|
 z2 A,2 E,2 F,2 C,2 A,,2 z4 | z2 F,2 C,2 D,2 A,,2 A,,2 E,4 | A,,4 D,6 ^C,2 D,4 | %32
w: e for- tu- na- to,|e for- tu- na- to a pie-|no, Mor- to sa-|
 _B,,8 z2 D,2 D,3 C, | _B,,4 D,4 G,,8 | A,,16 | z2 _B,,2 B,,3 A,, G,,2 ^F,,2 G,,4 | D,16 |] %37
w: rei, poi ch'io vi|mo- ro in se-|no,|poi ch'io vi mo- ro in se-|no.|

